dist/svgs/crypto-icons/icons/amp.svg

<?xml version="1.0" encoding="UTF-8" standalone="yes"?>
<svg xmlns="http://www.w3.org/2000/svg" xmlns:xlink="http://www.w3.org/1999/xlink" width="512px" height="512px" viewBox="0 0 384 384" version="1.1">
  <g id="surface1">
    <path style=" stroke:none;fill-rule:nonzero;fill:rgb(0%,0%,0%);fill-opacity:1;" d="M 182.445312 191.539062 C 182.445312 173.980469 168.210938 159.742188 150.648438 159.742188 C 133.089844 159.742188 118.855469 173.980469 118.855469 191.539062 C 118.855469 209.101562 133.089844 223.335938 150.648438 223.335938 C 168.210938 223.335938 182.445312 209.101562 182.445312 191.539062 Z M 182.445312 191.539062 "/>
    <path style=" stroke:none;fill-rule:nonzero;fill:rgb(0%,0%,0%);fill-opacity:1;" d="M 248.660156 159.742188 C 248.542969 159.742188 248.429688 159.757812 248.3125 159.761719 L 248.332031 159.742188 C 223.53125 159.742188 203.425781 139.640625 203.425781 114.835938 C 203.425781 97.277344 189.1875 83.039062 171.628906 83.039062 C 154.066406 83.039062 139.832031 97.277344 139.832031 114.835938 C 139.832031 132.398438 154.070312 146.628906 171.628906 146.628906 C 171.742188 146.628906 171.859375 146.613281 171.972656 146.613281 L 171.957031 146.628906 C 196.757812 146.628906 216.867188 166.738281 216.867188 191.539062 C 216.867188 216.339844 196.757812 236.445312 171.957031 236.445312 C 154.398438 236.445312 140.160156 250.679688 140.160156 268.238281 C 140.160156 285.800781 154.398438 300.035156 171.957031 300.035156 C 189.515625 300.035156 203.75 285.800781 203.75 268.238281 C 203.75 243.4375 223.859375 223.332031 248.660156 223.332031 C 266.21875 223.332031 280.457031 209.09375 280.457031 191.539062 C 280.457031 173.980469 266.21875 159.742188 248.660156 159.742188 Z M 248.660156 159.742188 "/>
    <path style=" stroke:none;fill-rule:nonzero;fill:rgb(0%,0%,0%);fill-opacity:1;" d="M 191.8125 0 C 85.878906 0 0 85.878906 0 191.808594 C 0 297.746094 85.878906 383.621094 191.8125 383.621094 C 297.746094 383.621094 383.621094 297.746094 383.621094 191.808594 C 383.621094 85.878906 297.746094 0 191.8125 0 Z M 191.808594 337.351562 C 111.433594 337.351562 46.269531 272.191406 46.269531 191.8125 C 46.269531 111.429688 111.433594 46.273438 191.808594 46.273438 C 272.191406 46.273438 337.347656 111.429688 337.347656 191.8125 C 337.351562 272.191406 272.191406 337.351562 191.808594 337.351562 Z M 191.808594 337.351562 "/>
  </g>
</svg>

<svg xmlns="http://www.w3.org/2000/svg" viewBox="0 0 384 384"><path d="M182.445 191.54c0-17.56-14.234-31.798-31.797-31.798-17.558 0-31.793 14.238-31.793 31.797 0 17.563 14.235 31.797 31.793 31.797 17.563 0 31.797-14.234 31.797-31.797zm0 0"/><path d="M248.66 159.742c-.117 0-.23.016-.347.02l.019-.02c-24.8 0-44.906-20.101-44.906-44.906 0-17.559-14.238-31.797-31.797-31.797-17.563 0-31.797 14.238-31.797 31.797 0 17.562 14.238 31.793 31.797 31.793.113 0 .23-.016.344-.016l-.016.016c24.8 0 44.91 20.11 44.91 44.91 0 24.8-20.11 44.906-44.91 44.906-17.559 0-31.797 14.235-31.797 31.793 0 17.563 14.238 31.797 31.797 31.797s31.793-14.234 31.793-31.797c0-24.8 20.11-44.906 44.91-44.906 17.559 0 31.797-14.238 31.797-31.793 0-17.559-14.238-31.797-31.797-31.797zm0 0"/><path d="M191.813 0C85.879 0 0 85.879 0 191.809 0 297.746 85.879 383.62 191.813 383.62c105.933 0 191.808-85.875 191.808-191.812C383.621 85.879 297.746 0 191.813 0zm-.004 337.352c-80.375 0-145.54-65.16-145.54-145.54 0-80.382 65.165-145.539 145.54-145.539 80.382 0 145.539 65.157 145.539 145.54.004 80.378-65.157 145.539-145.54 145.539zm0 0"/></svg>
